X:1
T:Skibbereen
M:4/4
L:1/4
K:D
 F| E D E F| B A F D| E D B, B,| B,3| B| B c d c| B A A B| A F D E|\
 F3| B| B c d c| B A A B| A F D E| F3| F| E D E F| B A F D| E D B, B,|\
 B,3||

